img/status.svg

<svg xmlns="http://www.w3.org/2000/svg" version="1.1" xmlns:xlink="http://www.w3.org/1999/xlink" xmlns:svgjs="http://svgjs.com/svgjs" width="512" height="512" x="0" y="0" viewBox="0 0 512 512" style="enable-background:new 0 0 512 512" xml:space="preserve" class=""><g><path xmlns="http://www.w3.org/2000/svg" d="m256 0c-141.382812 0-256 114.617188-256 256s114.617188 256 256 256 256-114.617188 256-256c-.15625-141.320312-114.679688-255.84375-256-256zm0 486.398438c-127.246094 0-230.398438-103.152344-230.398438-230.398438s103.152344-230.398438 230.398438-230.398438 230.398438 103.152344 230.398438 230.398438c-.144532 127.183594-103.214844 230.253906-230.398438 230.398438zm0 0" fill="#000000" data-original="#000000" class=""></path><path xmlns="http://www.w3.org/2000/svg" d="m294.398438 371.199219h-25.597657v-166.398438c0-7.070312-5.730469-12.800781-12.800781-12.800781h-25.601562c-7.066407 0-12.796876 5.730469-12.796876 12.800781 0 7.070313 5.730469 12.796875 12.796876 12.796875h12.800781v153.601563h-25.601563c-7.066406 0-12.796875 5.730469-12.796875 12.796875 0 7.070312 5.730469 12.800781 12.796875 12.800781h76.800782c7.070312 0 12.800781-5.730469 12.800781-12.800781 0-7.066406-5.730469-12.796875-12.800781-12.796875zm0 0" fill="#000000" data-original="#000000" class=""></path><path xmlns="http://www.w3.org/2000/svg" d="m281.601562 128c0 14.136719-11.464843 25.597656-25.601562 25.597656s-25.601562-11.460937-25.601562-25.597656c0-14.140625 11.464843-25.601562 25.601562-25.601562s25.601562 11.460937 25.601562 25.601562zm0 0" fill="#000000" data-original="#000000" class=""></path></g></svg>

<svg xmlns="http://www.w3.org/2000/svg" width="512" height="512"><path xmlns="http://www.w3.org/2000/svg" d="M256 0C114.617 0 0 114.617 0 256s114.617 256 256 256 256-114.617 256-256C511.844 114.68 397.32.156 256 0zm0 486.398C128.754 486.398 25.602 383.246 25.602 256S128.754 25.602 256 25.602 486.398 128.754 486.398 256C486.254 383.184 383.184 486.254 256 486.398zm0 0" data-original="#000000"/><path xmlns="http://www.w3.org/2000/svg" d="M294.398 371.2h-25.597V204.8c0-7.07-5.73-12.8-12.801-12.8h-25.602c-7.066 0-12.796 5.73-12.796 12.8 0 7.071 5.73 12.798 12.796 12.798H243.2v153.601h-25.601c-7.067 0-12.797 5.73-12.797 12.797 0 7.07 5.73 12.8 12.797 12.8h76.8c7.07 0 12.801-5.73 12.801-12.8 0-7.066-5.73-12.797-12.8-12.797zM281.602 128c0 14.137-11.465 25.598-25.602 25.598S230.398 142.137 230.398 128c0-14.14 11.465-25.602 25.602-25.602S281.602 113.86 281.602 128zm0 0" data-original="#000000"/></svg>
